X: 2
T: German's Freilachs
C: German Goldenshteyn
M: C
L: 1/8
K: Em^d
|: "Em"Bgfe "B"d2cB | "Em"e8 | "Em"Bgfe "B"d2cB | "Am"A8 | "Am"zA^GA BcBA | "Am"zcBc dedc |
| "B"f2e2 d2"Am"cd |1 "B"B8 :|2 "B"B4 zBcd |: "B"f8 | "B"b8 | "B"~f>e e<d ~f>e e<d | "B"~f>e e<d dccB |
| "Am"A8 | "Am"zA^GA BcBA | "Am"zcBc dedc | "B"f2e2 d2"Am"cd |1 "B"B4 zBcd :|2 "B"B8 |]
